X:1
N: Bonnie Stronshiray
N: 8 x 32S 3C (Glasgow Assembly)
P: Davie Taylor
C: J. Scott Skinner
C: from Elke Baker, arr. T. Traub 11-17-2002
R: Strathspey
M: 4/4
K: G
L: 1/8
|: D|"G"G/F/E D/E/F G2 D>C|"G"B,<DG>B "D"A>A,A,>F|\
  "G"G/F/E D/E/F "G"Gg"C"ec|"G"B<d"D"c>A "G"B<G G :|
c|"G"B/c/d G>g "C"e>gc>e|"A"^c/d/e A>a "D"f=c|\
  "G"B/c/d G>g "C"e>gc>e|"G"d>g"D"A>d "G"B>G"D"G>c|
"G"B/c/d g>f "C"e>gc>e|"A"^c/d/e A>a "D"ff|\
  "G"gfe def "C"gdc BAG|"D"FED CB,A, "G"B,<G, G, |]
